X: 490
T: Cong qianshang liaodaole heobanshang
%%abc-version 2.0
%%abcx-abcm2ps-target-version 5.9.1 (29 Sep 2008)
%%abc-creator hum2abc beta
%%abcx-conversion-date 2013/10/02 07:52:30
%%abc-edited-by Helmut Schaffrath
%%humdrum-veritas 831551825
%%humdrum-veritas-data 1976474744
%%continueall 1
%%barnumbers 0
L: 1/8
M: 3/8
K: F
f/ d/ c G [I:setbarnb 1]| 
c/ d/ c c | 
B G B/ D/ | 
C3- | 
C3 | 
F C F | 
G c C | 
F D C | 
C3- | 
C3 |]  



